ACP3/Modules/ACP3/System/Resources/Assets/svgs/solid/truck-ramp-box.svg

<svg xmlns="http://www.w3.org/2000/svg" viewBox="0 0 640 512"><!--! Font Awesome Free 6.1.2 by @fontawesome - https://fontawesome.com License - https://fontawesome.com/license/free (Icons: CC BY 4.0, Fonts: SIL OFL 1.1, Code: MIT License) Copyright 2022 Fonticons, Inc. --><path d="M640 .0003V400C640 461.9 589.9 512 528 512C467 512 417.5 463.3 416 402.7L48.41 502.9C31.36 507.5 13.77 497.5 9.126 480.4C4.48 463.4 14.54 445.8 31.59 441.1L352 353.8V64C352 28.65 380.7 0 416 0L640 .0003zM528 352C501.5 352 480 373.5 480 400C480 426.5 501.5 448 528 448C554.5 448 576 426.5 576 400C576 373.5 554.5 352 528 352zM23.11 207.7C18.54 190.6 28.67 173.1 45.74 168.5L92.1 156.1L112.8 233.4C115.1 241.9 123.9 246.1 132.4 244.7L163.3 236.4C171.8 234.1 176.9 225.3 174.6 216.8L153.9 139.5L200.3 127.1C217.4 122.5 234.9 132.7 239.5 149.7L280.9 304.3C285.5 321.4 275.3 338.9 258.3 343.5L103.7 384.9C86.64 389.5 69.1 379.3 64.52 362.3L23.11 207.7z"/></svg>

<svg xmlns="http://www.w3.org/2000/svg" viewBox="0 0 640 512"><!--! Font Awesome Free 6.2.0 by @fontawesome - https://fontawesome.com License - https://fontawesome.com/license/free (Icons: CC BY 4.0, Fonts: SIL OFL 1.1, Code: MIT License) Copyright 2022 Fonticons, Inc. --><path d="M640 0V400c0 61.9-50.1 112-112 112c-61 0-110.5-48.7-112-109.3L48.4 502.9c-17.1 4.6-34.6-5.4-39.3-22.5s5.4-34.6 22.5-39.3L352 353.8V64c0-35.3 28.7-64 64-64H640zM576 400c0-26.5-21.5-48-48-48s-48 21.5-48 48s21.5 48 48 48s48-21.5 48-48zM23.1 207.7c-4.6-17.1 5.6-34.6 22.6-39.2l46.4-12.4 20.7 77.3c2.3 8.5 11.1 13.6 19.6 11.3l30.9-8.3c8.5-2.3 13.6-11.1 11.3-19.6l-20.7-77.3 46.4-12.4c17.1-4.6 34.6 5.6 39.2 22.6l41.4 154.5c4.6 17.1-5.6 34.6-22.6 39.2L103.7 384.9c-17.1 4.6-34.6-5.6-39.2-22.6L23.1 207.7z"/></svg>
